X: 2884
T: Barnacle, The
R: mazurka
M: 3/4
K: Dmajor
|:DF|A2 AF AB|d2 dA df|e2 ed ef|a2 af ef|
A2 AF AB|d2 dA df|e2 ed ef|d4:|
|:A2|Ad fd fd|Ad fd fd|Ac ec ec|ac ec ec|
Ad fd fd|Ad fd fd|a2 af ef|d4:|
|:A2|f2 f/g/f/e/ fe|d2 (5dedcd|B2 BA FA|B2 BA FA|
f2 f/g/f/e/ fe|d2 d/e/d/c/ df|a2 af ef|d4:|

